svg/ricky/sitting/emotion/blush.svg

<?xml version="1.0" encoding="UTF-8"?>
<svg width="500px" height="600px" viewBox="0 0 500 600" version="1.1" xmlns="http://www.w3.org/2000/svg" xmlns:xlink="http://www.w3.org/1999/xlink">
    <title>blush</title>
    <defs>
        <polygon id="path-1" points="0 0.454 182.161362 0.454 182.161362 198.107401 0 198.107401"></polygon>
    </defs>
    <g id="blush" stroke="none" stroke-width="1" fill="none" fill-rule="evenodd">
        <g transform="translate(169.000000, 58.000000)">
            <g id="face" transform="translate(0.000000, 0.546000)">
                <mask id="mask-2" fill="white">
                    <use xlink:href="#path-1"></use>
                </mask>
                <g id="Clip-9"></g>
                <path d="M172.4955,104.5349 C172.2265,106.0479 171.9275,107.5579 171.6155,109.0679 C171.5465,109.3019 171.4965,109.5399 171.4655,109.7829 C170.8125,112.8959 170.1025,116.0029 169.4095,119.0969 C169.0255,120.8039 168.5465,123.0969 166.9175,124.0889 C165.9885,124.6539 163.3325,124.4499 163.5585,122.8539 C163.6085,122.5109 163.4935,122.2269 163.3075,122.0129 C163.4395,113.2759 162.1385,104.6229 160.4865,95.9929 C161.0545,95.9069 161.5735,95.5839 161.9295,95.0489 C161.9985,94.9429 162.0685,94.8389 162.1415,94.7359 C162.1525,94.7209 162.1865,94.6759 162.2185,94.6339 C162.2665,94.5759 162.3245,94.5049 162.3405,94.4859 C162.4055,94.4099 162.4735,94.3349 162.5405,94.2599 C162.8645,93.9039 163.2245,93.5969 163.5815,93.2759 C163.5865,93.2709 163.5855,93.2709 163.5895,93.2669 C163.5915,93.2659 163.5925,93.2659 163.5945,93.2639 C163.6765,93.2059 163.7575,93.1459 163.8405,93.0899 C164.0265,92.9609 164.2185,92.8389 164.4125,92.7219 C164.6075,92.6049 164.8065,92.4949 165.0085,92.3909 C165.1195,92.3349 165.2335,92.2789 165.3485,92.2249 C165.3925,92.2039 165.4385,92.1819 165.4845,92.1629 C165.6195,92.1019 165.5765,92.1199 165.3545,92.2149 C165.4445,92.1019 165.8655,92.0199 165.9935,91.9769 C166.2085,91.9049 166.4265,91.8399 166.6445,91.7819 C166.8645,91.7229 167.0855,91.6729 167.3085,91.6299 C167.4075,91.6099 167.5075,91.5939 167.6065,91.5759 C167.6035,91.5749 167.5985,91.5759 167.5975,91.5739 C167.5985,91.5749 167.6045,91.5749 167.6075,91.5759 C167.6315,91.5719 167.6555,91.5669 167.6805,91.5629 C167.9675,91.5139 167.7135,91.5819 167.6245,91.5799 C167.6885,91.5879 167.8745,91.5699 168.0455,91.5509 C168.6465,91.7489 169.2175,92.0359 169.7085,92.4339 C173.2705,95.3349 173.2235,100.4239 172.4955,104.5349 M161.2825,124.2969 C161.2005,125.8999 161.0475,127.5069 160.8575,129.1099 C160.6395,129.7179 160.5665,130.3769 160.6205,131.0249 C160.3785,132.6879 160.0415,134.3349 159.6645,135.9719 C158.3245,140.1539 156.4065,144.1129 153.9715,147.7609 C153.9635,147.7519 153.9555,147.7429 153.9465,147.7339 C151.0925,150.9959 147.7295,153.8309 144.2555,156.4329 C137.7355,161.3179 130.9765,165.9069 124.2105,170.4389 C120.2015,173.1239 116.1635,175.7629 112.0985,178.3589 C111.8865,178.4949 111.7575,178.6709 111.6895,178.8589 C110.3645,179.6869 108.9975,180.4379 107.5415,181.0269 C102.1045,183.2239 96.3295,182.2229 90.9915,180.2489 C85.9745,178.3929 81.1675,175.8689 76.4035,173.4479 C67.8815,169.1179 59.3995,164.2839 52.4835,157.5979 C45.3165,150.6689 40.7255,141.9399 39.1755,132.0819 C37.5675,121.8619 38.9215,111.3819 40.3215,101.2219 C40.9895,96.3799 41.6925,91.5179 42.2205,86.6419 C47.0185,89.1969 52.1335,89.7649 55.9275,83.8619 C57.7015,81.1019 58.8525,78.0019 59.5445,74.7689 C62.2885,76.5689 65.3015,77.5269 68.6175,76.6229 C71.8365,75.7459 74.3915,73.2299 75.8495,70.3059 C77.1095,67.7789 76.8535,64.4989 78.1585,62.1129 C81.2195,63.8319 84.6015,64.9109 88.0675,65.0389 C96.0065,65.3319 100.3845,59.3059 102.8565,52.5159 C106.7645,54.5589 111.7005,54.5839 115.5465,52.3169 C115.7965,52.9449 116.0835,53.5579 116.4065,54.1559 C117.8985,58.6389 121.8505,62.1959 126.4205,63.5419 C129.4095,64.4219 132.5625,64.2709 135.4055,62.9849 C135.4705,62.9559 135.5385,62.9189 135.6025,62.8879 C135.5605,68.8059 136.8215,74.5629 141.2255,79.1479 C145.1595,83.2439 150.8265,84.8759 156.0275,83.8139 C156.0435,83.8949 156.0585,83.9769 156.0745,84.0579 C156.0785,84.1839 156.0855,84.3089 156.0905,84.4349 C156.1185,85.3179 156.3295,86.1559 156.6545,86.9399 C157.0135,88.7059 157.3735,90.4719 157.7285,92.2349 C159.8495,102.7669 161.8405,113.5059 161.2825,124.2969 M102.5165,191.1329 C100.9615,193.6609 98.6395,196.3529 95.3945,196.0899 C92.2725,195.8359 90.5795,192.7119 89.3455,190.1259 C89.4205,189.9919 89.4735,189.8389 89.4735,189.6469 L89.4735,181.8069 C92.8145,183.1189 96.2745,184.1039 99.8715,184.2859 C100.7215,184.3289 101.5475,184.2939 102.3635,184.2239 L102.3635,190.6399 C102.3635,190.8209 102.4285,190.9839 102.5165,191.1329 M36.5165,123.3419 C36.4695,123.3649 36.4215,123.3899 36.3845,123.4309 C36.2995,123.5239 36.2275,123.6529 36.2375,123.7839 C36.2405,123.8219 36.2365,123.8589 36.2345,123.8969 C36.2275,123.9329 36.2175,123.9689 36.2055,124.0039 C36.1905,124.0339 36.1745,124.0619 36.1555,124.0899 C36.1175,124.1289 36.0795,124.1679 36.0415,124.2059 C35.9615,124.2879 35.9155,124.4009 35.9035,124.5159 C35.8995,124.5159 35.8955,124.5149 35.8915,124.5139 C35.6335,124.3789 35.3135,124.3529 34.9815,124.5319 C33.1075,125.5439 31.2875,123.8279 30.1455,122.4669 C28.8015,120.8639 27.8765,118.8899 26.9275,117.0419 C24.9465,113.1829 23.2245,108.8799 23.8315,104.4589 C24.3065,100.9989 26.3015,97.2649 29.9335,96.3759 C32.8945,95.6509 36.6425,96.8909 37.5945,100.0199 C37.7195,100.4329 38.0245,100.6349 38.3565,100.6899 C37.2915,108.2229 36.3865,115.7639 36.5165,123.3419 M99.1855,3.8299 C97.7155,3.2469 96.1895,2.8029 94.6215,2.5069 C96.2195,2.6429 97.7665,3.1049 99.1855,3.8299 M182.0225,100.6849 C181.8715,99.5389 181.5485,98.4689 181.2445,97.3579 C180.8495,95.9199 181.1415,94.7439 181.4615,93.3279 C182.5075,88.6999 181.0175,83.7939 177.5945,80.5159 C180.6795,73.2679 178.8775,64.3449 173.0265,58.9869 C173.0785,57.6219 172.6665,56.4169 172.0165,55.3119 C171.5915,54.2519 170.9025,53.4059 170.0425,52.7819 C169.7535,52.4779 169.4605,52.1789 169.1625,51.8859 C169.0105,51.7369 168.8495,51.5889 168.6845,51.4379 C168.3385,48.5569 167.9755,45.6199 167.3025,42.8389 C167.2685,42.4049 167.2265,41.9719 167.1685,41.5389 C166.7265,38.2789 165.6725,34.4019 163.2755,31.9979 C161.6415,30.3569 158.9925,29.6469 156.9815,30.7429 C155.9235,28.1849 154.4305,25.7579 152.5495,23.7109 C151.5725,22.1759 150.3155,20.8309 148.6765,19.8189 C146.3265,18.3689 143.5995,18.2229 141.1575,18.9829 C140.6735,15.4699 138.3495,12.2779 134.8975,11.0209 C130.9135,9.5689 126.2505,11.2869 123.8145,14.6509 C121.5565,11.7759 118.9895,8.9399 115.4385,7.7799 C112.6975,6.8859 109.4355,7.1519 107.1325,8.9059 C107.0295,8.8079 106.9295,8.7039 106.8255,8.6099 C106.7505,8.5409 106.6695,8.4829 106.5935,8.4159 C104.1255,3.8709 99.3785,0.6849 94.1235,0.4659 C88.4865,0.2289 83.2195,3.5289 80.5495,8.3739 C76.7905,4.8589 70.7385,4.1579 66.2095,6.6229 C65.6165,6.9459 65.0605,7.3319 64.5385,7.7589 C63.9555,8.2339 63.4355,8.9799 62.7665,9.3249 C61.8285,9.8079 60.9345,9.0259 60.0925,8.6419 C59.3075,8.2849 58.4885,8.0099 57.6395,7.8499 C54.4175,7.2469 51.0175,8.0099 48.4665,10.0969 C46.2925,11.8749 44.9265,14.4959 44.5575,17.2559 C43.7055,18.3189 42.9845,19.4629 42.3835,20.6739 C38.1815,16.4309 30.0705,16.9059 26.9335,22.3049 C26.0245,23.8679 25.5995,25.6609 24.6975,27.2269 C24.3005,27.9179 23.8045,28.5729 23.0815,28.9489 C21.8835,29.5729 20.4455,29.3319 19.1515,29.2949 C15.1795,29.1789 12.1465,31.5749 10.8755,35.2979 C9.6235,38.9619 10.6845,42.6849 12.3675,46.0489 C12.6915,46.8599 13.0785,47.6459 13.5355,48.3999 C7.8165,50.4889 5.3275,58.4129 8.2565,63.6109 C8.2985,64.0829 8.3625,64.5519 8.4525,65.0149 C3.5585,66.7519 -0.1915,71.5249 0.0075,76.8859 C0.2085,82.3099 4.3155,86.9599 9.4425,88.2889 C4.5535,94.0439 6.4625,102.9229 10.1145,108.9789 C11.3125,110.9659 12.8255,112.6549 14.3195,114.4179 C16.1265,116.5509 17.0295,118.7769 17.7295,121.4559 C18.8915,125.9019 20.9635,129.7799 24.5655,132.7319 C28.3925,135.8689 33.2375,137.6469 38.2055,137.4259 C38.2455,137.4239 38.2725,137.4049 38.3095,137.3999 C39.9725,143.6499 42.8175,149.5049 47.0255,154.6379 C53.2305,162.2059 61.5795,167.7299 70.0885,172.3859 C74.4805,174.7879 78.9765,177.0039 83.4935,179.1609 C84.8325,179.7999 86.1905,180.4299 87.5685,181.0219 C87.5095,181.1459 87.4735,181.2899 87.4735,181.4579 L87.4735,189.2769 C87.2055,189.5649 87.0755,189.9859 87.2855,190.4329 C88.9075,193.8799 91.1405,197.7909 95.3945,198.0899 C99.5695,198.3829 102.6105,194.9449 104.5245,191.6759 C104.7905,191.2229 104.6525,190.7959 104.3635,190.5139 L104.3635,183.9459 C107.8285,183.2749 111.0145,181.6999 114.0425,179.6859 C113.9925,179.6509 113.9535,179.6029 113.9055,179.5649 C120.9495,175.0529 127.9135,170.4159 134.7815,165.6389 C141.0655,161.2679 147.6045,156.9679 153.0985,151.5959 C153.4865,151.2159 153.8415,150.8029 154.2155,150.4089 C154.4565,150.3649 154.6885,150.2359 154.8645,149.9889 C155.0945,149.6669 155.3115,149.3369 155.5335,149.0089 C155.5575,148.9809 155.5845,148.9569 155.6085,148.9299 C155.6025,148.9269 155.5985,148.9249 155.5935,148.9219 C157.8505,145.5669 159.6805,141.9399 161.0435,138.1349 C161.0975,138.1569 161.1535,138.1679 161.2065,138.1909 C161.3605,137.5979 161.4905,137.0009 161.6265,136.4039 C161.6795,136.2379 161.7375,136.0739 161.7885,135.9079 C161.8255,135.7889 161.8235,135.6829 161.8205,135.5779 C161.8265,135.5469 161.8355,135.5149 161.8425,135.4839 C161.9395,135.5259 162.0375,135.5679 162.1575,135.5799 C166.3065,135.9779 170.1365,134.0479 173.0915,131.2559 C176.1855,128.3299 179.1065,124.1069 179.6785,119.8079 C179.8115,118.7979 179.7935,117.7699 179.5535,116.7749 C179.2705,115.6029 178.3355,114.5099 178.6455,113.2689 C178.9005,112.2509 179.7285,111.3509 180.2245,110.4409 C180.7875,109.4089 181.2345,108.3019 181.5565,107.1719 C182.1525,105.0729 182.3085,102.8469 182.0225,100.6849" id="Fill-8" fill="#231F20" mask="url(#mask-2)"></path>
            </g>
            <g transform="translate(63.000000, 114.546000)" fill="#F8C5D3">
                <path d="M19.4516,1.5115 C14.1056,1.3265 8.8046,2.2505 3.7896,4.3205 C-1.6004,6.5445 0.7316,16.2135 6.1856,13.9625 C10.5206,12.1745 14.8296,11.3515 19.4516,11.5115 C25.2556,11.7115 25.2496,1.7115 19.4516,1.5115" id="Fill-1"></path>
                <path d="M75.1537,0.9568 C70.7177,-0.0372 66.3157,0.0678 61.9657,1.5338 C56.5537,3.3558 58.8577,13.0098 64.3017,11.1768 C67.1087,10.2308 69.9277,9.9528 72.8167,10.6008 C75.1427,11.1218 77.5607,9.8478 78.2227,7.1078 C78.8157,4.6508 77.4937,1.4818 75.1537,0.9568" id="Fill-3"></path>
            </g>
            <g id="eyes" transform="translate(61.164245, 83.828107)" fill="#231F20">
                <path d="M13.7394551,0.899292994 C8.48645513,2.21929299 3.70145513,5.19129299 0.206455135,9.33229299 C-0.473544865,10.137293 0.686455135,11.308293 1.37145513,10.497293 C4.69745513,6.55529299 9.17445513,3.74529299 14.1774551,2.48729299 C15.2054551,2.22929299 14.7694551,0.640292994 13.7394551,0.899292994" id="Fill-13"></path>
                <path d="M76.7902551,4.56429299 C72.7182551,1.05629299 67.2572551,0.352292994 62.0862551,0.00229299429 C61.0282551,-0.0697070057 61.0322551,1.57729299 62.0862551,1.64829299 C66.7742551,1.96629299 71.9212551,2.53729299 75.6262551,5.72829299 C76.4252551,6.41729299 77.5952551,5.25629299 76.7902551,4.56429299" id="Fill-15"></path>
                <path d="M23.3263551,25.357293 C22.0293551,20.994293 17.6753551,17.713293 13.0703551,17.956293 C8.49035513,18.196293 4.40335513,21.788293 3.56535513,26.294293 C3.33235513,27.553293 5.25935513,28.092293 5.49435513,26.827293 C6.16635513,23.213293 9.32835513,20.157293 13.0703551,19.956293 C16.7883551,19.754293 20.3443551,22.342293 21.3973551,25.888293 C21.7633551,27.120293 23.6933551,26.595293 23.3263551,25.357293" id="Fill-19"></path>
                <path d="M69.2765551,14.575093 C65.0675551,14.935093 61.7885551,18.626093 61.0755551,22.651093 C60.8525551,23.910093 62.7795551,24.450093 63.0045551,23.182093 C63.5505551,20.097093 65.8465551,17.038093 69.1235551,16.593093 C71.8845551,16.218093 75.1725551,18.154093 75.5465551,21.068093 C75.6155551,21.608093 75.9565551,22.061093 76.5465551,22.068093 C77.0335551,22.073093 77.6145551,21.603093 77.5465551,21.068093 C77.0425551,17.130093 73.2145551,14.238093 69.2765551,14.575093" id="Fill-21"></path>
            </g>
            <path d="M109.9223,134.1102 C109.8373,133.5772 109.1713,133.2802 108.6923,133.4122 C108.1233,133.5682 107.9083,134.1072 107.9933,134.6422 C108.3923,137.1482 106.3583,139.8442 103.8583,140.2002 C101.2333,140.5742 98.5343,138.3232 98.3523,135.7012 C98.2623,134.4232 96.2623,134.4142 96.3523,135.7012 C96.5593,138.6612 98.7463,141.2382 101.6103,142.0072 C104.5003,142.7842 107.4293,141.3602 108.9753,138.8752 C109.8673,137.4382 110.1873,135.7732 109.9223,134.1102" id="nose" fill="#231F20"></path>
            <path d="M109.1488,156.5223 C108.8498,159.3133 105.9158,161.1023 103.3378,161.3713 C100.1838,161.6983 96.9128,160.0973 95.0488,157.5723 C94.2928,156.5473 92.5558,157.5433 93.3218,158.5823 C95.7108,161.8193 99.7528,163.8703 103.8188,163.3113 C107.4148,162.8173 110.7458,160.2853 111.1488,156.5223 C111.2858,155.2433 109.2848,155.2523 109.1488,156.5223" id="mouth" fill="#231F20"></path>
        </g>
    </g>
</svg>

<svg width="500" height="600" xmlns="http://www.w3.org/2000/svg" xmlns:xlink="http://www.w3.org/1999/xlink"><defs><path id="a" d="M0 .454h182.161v197.653H0z"/></defs><g fill="none" fill-rule="evenodd"><g transform="translate(169 58.546)"><mask id="b" fill="#fff"><use xlink:href="#a"/></mask><path d="M172.495 104.535a166.134 166.134 0 01-.88 4.533 4.565 4.565 0 00-.15.715c-.653 3.113-1.363 6.22-2.055 9.314-.385 1.707-.863 4-2.493 4.992-.929.565-3.584.36-3.358-1.235a1.023 1.023 0 00-.251-.841c.132-8.737-1.17-17.39-2.821-26.02.567-.086 1.087-.41 1.442-.944a9.54 9.54 0 01.213-.313 10.6 10.6 0 01.077-.102l.121-.148c.065-.076.133-.151.2-.226.325-.356.685-.663 1.042-.984.005-.005.004-.005.007-.01.002 0 .004 0 .006-.002.082-.058.162-.118.245-.174a10.696 10.696 0 011.508-.865c.044-.021.09-.043.136-.062.135-.061.093-.043-.13.052.09-.113.511-.195.64-.238a10.789 10.789 0 011.315-.347c.099-.02.198-.036.298-.054-.004-.001-.008 0-.01-.002.001 0 .007 0 .01.002.024-.004.048-.01.073-.013.287-.05.034.019-.055.017.064.008.25-.01.42-.03a5.22 5.22 0 011.663.884c3.563 2.9 3.516 7.99 2.787 12.1m-11.213 19.763a72.355 72.355 0 01-.425 4.813 4.567 4.567 0 00-.237 1.915 61.142 61.142 0 01-.956 4.947 47.123 47.123 0 01-5.692 11.789.615.615 0 00-.026-.027c-2.853 3.262-6.216 6.097-9.69 8.699-6.52 4.885-13.28 9.474-20.046 14.006a664.006 664.006 0 01-12.111 7.92.987.987 0 00-.41.5c-1.324.828-2.691 1.579-4.147 2.168-5.438 2.197-11.213 1.196-16.55-.778-5.017-1.856-9.825-4.38-14.589-6.801-8.522-4.33-17.004-9.164-23.92-15.85-7.166-6.93-11.758-15.658-13.307-25.516-1.608-10.22-.255-20.7 1.145-30.86.669-4.842 1.372-9.704 1.9-14.58 4.798 2.555 9.913 3.123 13.707-2.78 1.774-2.76 2.925-5.86 3.617-9.093 2.743 1.8 5.757 2.758 9.073 1.854 3.219-.877 5.773-3.393 7.232-6.317 1.26-2.527 1.004-5.807 2.309-8.193 3.06 1.719 6.442 2.798 9.908 2.926 7.94.293 12.318-5.733 14.79-12.523 3.907 2.043 8.844 2.068 12.69-.2.25.629.537 1.242.86 1.84 1.492 4.483 5.444 8.04 10.014 9.386 2.989.88 6.141.729 8.984-.557.065-.03.133-.066.197-.097-.042 5.918 1.22 11.675 5.624 16.26 3.934 4.096 9.6 5.728 14.802 4.666.016.08.03.163.047.244.004.126.01.25.016.377.028.883.238 1.72.564 2.505.358 1.766.719 3.532 1.073 5.295 2.121 10.532 4.112 21.27 3.554 32.062m-58.766 66.836c-1.555 2.528-3.877 5.22-7.122 4.957-3.122-.254-4.815-3.378-6.049-5.964a.95.95 0 00.129-.48v-7.84c3.34 1.313 6.8 2.298 10.397 2.48.85.043 1.677.008 2.493-.062v6.416c0 .18.064.344.152.493m-66-67.791a.416.416 0 00-.131.089c-.085.093-.157.222-.148.353.003.038 0 .075-.003.113a.806.806 0 01-.029.107.74.74 0 01-.05.086c-.038.039-.075.078-.114.116a.522.522 0 00-.137.31l-.013-.002a.939.939 0 00-.91.018c-1.873 1.012-3.694-.704-4.836-2.065-1.343-1.603-2.268-3.577-3.218-5.425-1.98-3.86-3.703-8.162-3.096-12.583.476-3.46 2.47-7.194 6.102-8.083 2.962-.725 6.71.515 7.661 3.644a.92.92 0 00.762.67c-1.065 7.533-1.97 15.074-1.84 22.652M99.186 3.83a24.903 24.903 0 00-4.565-1.323c1.599.136 3.145.598 4.565 1.323m82.837 96.855c-.151-1.146-.475-2.216-.779-3.327-.394-1.438-.102-2.614.218-4.03 1.046-4.628-.444-9.534-3.867-12.812 3.084-7.248 1.282-16.171-4.569-21.53.052-1.364-.36-2.57-1.01-3.674a5.73 5.73 0 00-1.974-2.53 37.213 37.213 0 00-.88-.896 19.251 19.251 0 00-.477-.448c-.346-2.881-.71-5.818-1.382-8.6a23.75 23.75 0 00-.135-1.3c-.442-3.26-1.495-7.136-3.893-9.54-1.633-1.641-4.282-2.351-6.293-1.255-1.059-2.558-2.552-4.985-4.433-7.032-.977-1.535-2.234-2.88-3.873-3.892-2.35-1.45-5.076-1.596-7.518-.836-.484-3.513-2.808-6.705-6.26-7.962-3.984-1.452-8.647.266-11.084 3.63-2.257-2.875-4.824-5.711-8.375-6.871-2.741-.894-6.003-.628-8.306 1.126-.103-.098-.203-.202-.307-.296-.075-.07-.156-.127-.232-.194-2.468-4.545-7.215-7.731-12.47-7.95C88.487.229 83.22 3.529 80.549 8.374c-3.759-3.515-9.81-4.216-14.34-1.751-.593.323-1.148.709-1.67 1.136-.584.475-1.104 1.22-1.773 1.566-.938.483-1.831-.3-2.673-.683a10.732 10.732 0 00-2.454-.792c-3.222-.603-6.622.16-9.172 2.247-2.175 1.778-3.54 4.399-3.91 7.159a18.837 18.837 0 00-2.174 3.418c-4.202-4.243-12.313-3.768-15.45 1.63-.909 1.564-1.334 3.357-2.235 4.923-.398.69-.893 1.346-1.617 1.722-1.197.624-2.636.383-3.93.346-3.971-.116-7.005 2.28-8.275 6.003-1.252 3.664-.191 7.387 1.492 10.75.323.812.71 1.598 1.168 2.352-5.72 2.089-8.209 10.013-5.28 15.21.043.473.107.942.197 1.405-4.894 1.737-8.644 6.51-8.445 11.87.2 5.425 4.308 10.075 9.435 11.404-4.89 5.755-2.98 14.634.671 20.69 1.198 1.987 2.711 3.676 4.205 5.439 1.807 2.133 2.71 4.359 3.41 7.038 1.163 4.446 3.235 8.324 6.837 11.276 3.826 3.137 8.671 4.915 13.64 4.694.04-.002.066-.021.103-.026 1.663 6.25 4.509 12.105 8.717 17.238 6.204 7.568 14.553 13.092 23.062 17.748 4.393 2.402 8.889 4.618 13.406 6.775 1.338.639 2.697 1.269 4.075 1.86a1 1 0 00-.096.437v7.819c-.267.288-.397.709-.188 1.156 1.623 3.447 3.856 7.358 8.11 7.657 4.175.293 7.216-3.145 9.13-6.414.265-.453.127-.88-.162-1.162v-6.568c3.466-.671 6.651-2.246 9.68-4.26-.05-.035-.09-.083-.138-.121a659.916 659.916 0 0020.876-13.926c6.284-4.371 12.823-8.671 18.317-14.043.388-.38.743-.793 1.117-1.187.242-.044.474-.173.65-.42.23-.322.446-.652.668-.98.025-.028.052-.052.076-.08l-.016-.007a48.833 48.833 0 005.45-10.787c.054.022.11.033.163.056.155-.593.285-1.19.42-1.787.053-.166.112-.33.162-.496a.958.958 0 00.032-.33l.023-.094c.097.042.195.084.315.096 4.149.398 7.979-1.532 10.934-4.324 3.093-2.926 6.014-7.15 6.587-11.448.132-1.01.114-2.038-.125-3.033-.284-1.172-1.219-2.265-.909-3.506.255-1.018 1.083-1.918 1.58-2.828a16.014 16.014 0 001.332-3.27 16.11 16.11 0 00.466-6.486" fill="#231F20" mask="url(#b)"/></g><path d="M251.452 174.058a37.475 37.475 0 00-15.662 2.809c-5.39 2.224-3.058 11.893 2.396 9.642 4.335-1.788 8.644-2.611 13.266-2.451 5.804.2 5.798-9.8 0-10m55.702-.555c-4.436-.994-8.838-.89-13.188.577-5.412 1.822-3.108 11.476 2.336 9.643 2.807-.946 5.626-1.224 8.515-.576 2.326.52 4.744-.753 5.406-3.493.593-2.457-.73-5.626-3.07-6.151" fill="#F8C5D3"/><path d="M243.904 142.727a26.12 26.12 0 00-13.533 8.433c-.68.805.48 1.976 1.165 1.165a24.623 24.623 0 0112.806-8.01c1.028-.258.592-1.847-.438-1.588m63.051 3.665c-4.072-3.508-9.533-4.212-14.704-4.562-1.058-.072-1.054 1.575 0 1.646 4.688.318 9.835.89 13.54 4.08.799.69 1.969-.472 1.164-1.164m-53.465 20.793c-1.296-4.363-5.65-7.644-10.255-7.4-4.58.24-8.667 3.831-9.505 8.337-.233 1.26 1.694 1.798 1.929.533.672-3.614 3.834-6.67 7.576-6.87 3.718-.203 7.274 2.385 8.327 5.931.366 1.232 2.296.707 1.929-.53m45.949-10.783c-4.208.36-7.487 4.051-8.2 8.076-.223 1.26 1.704 1.8 1.929.531.546-3.085 2.842-6.144 6.119-6.589 2.76-.375 6.049 1.561 6.423 4.475.069.54.41.993 1 1 .487.005 1.068-.465 1-1-.504-3.938-4.332-6.83-8.27-6.493m-20.519 35.707c-.085-.533-.75-.83-1.23-.698-.569.156-.784.695-.699 1.23.4 2.506-1.635 5.202-4.135 5.558-2.625.374-5.324-1.877-5.506-4.499-.09-1.278-2.09-1.287-2 0 .207 2.96 2.394 5.537 5.258 6.306 2.89.777 5.82-.647 7.365-3.132a6.895 6.895 0 00.947-4.765m-.773 22.412c-.3 2.791-3.233 4.58-5.811 4.85-3.154.326-6.425-1.275-8.29-3.8-.755-1.025-2.492-.029-1.726 1.01 2.389 3.237 6.43 5.288 10.497 4.73 3.596-.495 6.927-3.027 7.33-6.79.137-1.279-1.864-1.27-2 0" fill="#231F20"/></g></svg>
